X:57
T: Jack Rowe
Z: Piano Box Version by Martin Fleischmann
H: Created 2013-02-19 /  Last Modified 2014-12-15
M: 4/4
L: 1/8
R: reel
K: Gmaj
|: A3F GFED | (3EFG AB cABA | GBdg egdB | GBAF GFED |
EAAF GFED | (3EFG AB c2BA | GBdB AcBA | GEDE G4:|
|: g3e fedf | efge fedf | eBBB efge | fdef g3f |
gbag eage | dBBA BAGF | GBdB AcBA | GEDE G4:||

